packages/icons/src/heart-filled.svg

<svg width="15" height="15" viewBox="0 0 15 15" fill="none" xmlns="http://www.w3.org/2000/svg">
  <path
    fill-rule="evenodd"
    clip-rule="evenodd"
    d="M1.35248 4.90532C1.35248 2.94498 2.936 1.35248 4.89346 1.35248C6.25769 1.35248 6.86058 1.92336 7.50002 2.93545C8.13946 1.92336 8.74235 1.35248 10.1066 1.35248C12.064 1.35248 13.6476 2.94498 13.6476 4.90532C13.6476 6.74041 12.6013 8.50508 11.4008 9.96927C10.2636 11.3562 8.92194 12.5508 8.00601 13.3664C7.94645 13.4194 7.88869 13.4709 7.83291 13.5206C7.64324 13.6899 7.3568 13.6899 7.16713 13.5206C7.11135 13.4709 7.05359 13.4194 6.99403 13.3664C6.0781 12.5508 4.73641 11.3562 3.59926 9.96927C2.39872 8.50508 1.35248 6.74041 1.35248 4.90532Z"
    fill="currentColor"
  />
</svg>

<svg xmlns="http://www.w3.org/2000/svg" width="15" height="15" fill="none"><path fill="currentColor" fill-rule="evenodd" d="M1.352 4.905a3.547 3.547 0 0 1 3.541-3.553c1.365 0 1.968.571 2.607 1.583.64-1.012 1.242-1.583 2.607-1.583a3.547 3.547 0 0 1 3.54 3.553c0 1.835-1.046 3.6-2.246 5.064-1.137 1.387-2.48 2.582-3.395 3.397l-.173.155a.5.5 0 0 1-.666 0l-.173-.155c-.916-.815-2.258-2.01-3.395-3.397C2.4 8.505 1.352 6.74 1.352 4.905" clip-rule="evenodd"/></svg>
